X:1
T: The Haymakers
C:
R:Jig
Q:180
K:G
M:6/8
L:1/16
|:D2|G4B2 A4c2|B4G2 A2F2D2|G4B2 A4c2|B2d2B2 G4D2|G4B2 A4c2|B4G2 A2F2D2|
G4B2 A4c2|B2d2B2 G4d2|B4d2 g4d2|e2g2e2 d2B2G2|B4d2 g4d2|e2g2e2 d6|
B4d2 g4d2|e2g2e2 d2B2G2|B4d2 g4d2|efg2e2 d6|c4e2 d2B2G2|A2G2A2 B4G2|
c4e2 d2B2G2|A2G2A2 G6|c4e2 d2B2G2|A2G2A2 B4G2|c4e2 d2B2G2|A2G2A2 G4:|
